X: 7
T:Dry Cardrona, The
M:4/4
L:1/4
Q:60
C:James K Baxter
K:D
"D"ff"A"ef/e/|"D"d<AA2|"Bm"d>ddf|
"A"f<e-e2|"D"aaag|!
fe/d/"G"GG/G/|"A"A>AAA|AB/c/"D"de/f/|
"G"ge"D"fd|"A"c"D"d3|z3A:||
